!!!COM: Palestrina, Giovanni Perluigi da
!!!OPR: Sine nomine (1599)
!!!OTL: Sanctus
**kern	**kern	**kern	**kern	**kern
*Ibass	*Itenor	*Icalto	*Icalto	*Icant
!Bassus	!Tenor	!Altus 2	!Altus 1	!Cantus
*clefF4	*clefGv2	*clefG2	*clefG2	*clefG2
*k[]	*k[]	*k[]	*k[]	*k[]
*A:aeo	*A:aeo	*A:aeo	*A:aeo	*A:aeo
*M4/2	*M4/2	*M4/2	*M4/2	*M4/2
=1	=1	=1	=1	=1
0r	0A	0r	0r	0r
=2	=2	=2	=2	=2
0r	1c	0r	0r	0r
.	1B	.	.	.
=3	=3	=3	=3	=3
0F	2.A	0a	0r	0r
.	4B	.	.	.
.	2c	.	.	.
.	2d	.	.	.
=4	=4	=4	=4	=4
1A	2c	1cc	0r	0r
.	1f	.	.	.
1G	.	1b	.	.
.	2e	.	.	.
=5	=5	=5	=5	=5
1F	1f	2.a	0c	0r
.	.	4b	.	.
1A	2e	4cc	.	.
.	.	4a	.	.
.	2a	[2cc	.	.
=6	=6	=6	=6	=6
1c	2g	4cc]	1e	0r
.	.	4b	.	.
.	2c	1a	.	.
1B	1d	.	1d	.
.	.	2g#	.	.
=7	=7	=7	=7	=7
2.A	1e	2a	2.c	0a
.	.	1e	.	.
4B	.	.	4d	.
2c	1r	.	2e	.
2d	.	2d	2f	.
=8	=8	=8	=8	=8
2c	1r	1e	2e	1cc
2A	.	.	1a	.
1E	2.e	1r	.	1b
.	.	.	2g#	.
.	4d	.	.	.
=9	=9	=9	=9	=9
2.F	4c	0f	1a	2.a
.	4A	.	.	.
.	1a	.	.	.
4G	.	.	.	4b
2A	.	.	1r	2cc
2B-	2d	.	.	2dd
=10	=10	=10	=10	=10
2A	2e	1a	0r	2cc
2F	2f	.	.	1ff
1C	2g	1g	.	.
.	2c	.	.	2ee
=11	=11	=11	=11	=11
2.D	1A	2.f	1.a	1ff
4E	.	4g	.	.
2F	[1d	2a	.	1r
2G	.	2b-	2g	.
=12	=12	=12	=12	=12
2D	1d]	0a	1f	0r
1d	.	.	.	.
.	1A	.	2e	.
2c#	.	.	[2e	.
=13	=13	=13	=13	=13
2d	1.a	1.f	2e]	1.ff
1D	.	.	2.d	.
.	.	.	4c	.
2E	2g	2g	[2c	2ee
=14	=14	=14	=14	=14
2F	2f	2a	2c]	1dd
2G	2d	1g	2B	.
2.C	2e	.	1c	2cc
.	[2e	2c	.	[2cc
4D	.	.	.	.
=15	=15	=15	=15	=15
4E	2e]	2.g	0r	2cc]
4F	.	.	.	.
2G	2d	.	.	2.b
.	.	4f	.	.
2A	2c	2e	.	.
.	.	.	.	4a
2F	2A	2d	.	[2a
=16	=16	=16	=16	=16
1E	1B	1e	1r	2a]
.	.	.	.	2g#
2D	1d	1r	[1f	1a
[2d	.	.	.	.
=17	=17	=17	=17	=17
2d]	1A	1.a	2f]	0r
2c	.	.	2e	.
1c	1r	.	1e	.
.	.	2g	.	.
=18	=18	=18	=18	=18
2B-	0r	2g	2d	1r
2A	.	1a	2c	.
2B-	.	.	2d	[1dd
2B-	.	2g	2d	.
=19	=19	=19	=19	=19
0A	2r	2a	0e	2dd]
.	2e	4A	.	2cc
.	.	4B	.	.
.	4A	4c	.	1cc
.	4B	4d	.	.
.	4c	4e	.	.
.	4d	4f	.	.
=20	=20	=20	=20	=20
0r	2e	2g	0r	2b
.	2f	1a	.	2a
.	2d	.	.	2b
.	2e	2g#	.	2b
=21	=21	=21	=21	=21
1r	1A	2a	0r	0cc
.	.	1f	.	.
[1A	[1c	.	.	.
.	.	2e	.	.
=22	=22	=22	=22	=22
2A]	2c]	1e	0r	0r
2G	2B	.	.	.
1G	1B	2d	.	.
.	.	2e	.	.
=23	=23	=23	=23	=23
2F	2A	2d	1r	0r
2E	2G	2c#	.	.
2D	2.A	2d	[1a	.
2D	.	[2f	.	.
.	4B	.	.	.
=24	=24	=24	=24	=24
0C	0c	2f]	2a]	0r
.	.	2e	2g	.
.	.	1e	1g	.
=25	=25	=25	=25	=25
2D	1A	2d	2f	1r
2C#	.	2e	2e	.
2.D	1A	2.f	2d	[1ff
.	.	.	2d	.
4E	.	4g	.	.
=26	=26	=26	=26	=26
4F	2r	2a	2.c	2ff]
4G	.	.	.	.
4A	2.c	2a	.	2ee
4B	.	.	4d	.
1c	.	1g	4e	1ee
.	4d	.	4f	.
.	4e	.	4g	.
.	4c	.	4e	.
=27	=27	=27	=27	=27
0r	2d	0r	4f	2dd
.	.	.	4g	.
.	2A	.	1a	2cc
.	2e	.	.	2b
.	2e	.	2g#	2b
=28	=28	=28	=28	=28
1A	2e	1r	1a	2.a
.	2e	.	.	.
.	.	.	.	4b
2A	1a	2r	1r	4cc
.	.	.	.	4dd
2A	.	2a	.	4ee
.	.	.	.	4cc
=29	=29	=29	=29	=29
1d	1f	2a	0r	4dd
.	.	.	.	4ee
.	.	2a	.	1ff
1c	1g	[1cc	.	.
.	.	.	.	2ee
=30	=30	=30	=30	=30
1.F	2a	1cc]	1c	1ff
.	2.A	.	.	.
.	.	2a	2c	1r
.	4B	.	.	.
2E	[2c	2g	2c	.
=31	=31	=31	=31	=31
1D	2c]	2a	1f	0r
.	2B	4f	.	.
.	.	4g	.	.
1C	1c	4a	1e	.
.	.	4g	.	.
.	.	[2cc	.	.
=32	=32	=32	=32	=32
0r	2F	4cc]	2.f	1a
.	.	4b	.	.
.	1f	4a	.	.
.	.	4g	4e	.
.	.	4f	2d	2a
.	.	4g	.	.
.	2e	[2a	2c	2a
=33	=33	=33	=33	=33
0r	1d	2a]	1B	1dd
.	.	2g#	.	.
.	2e	2.a	1A	1cc
.	4f	.	.	.
.	4e	4g	.	.
=34	=34	=34	=34	=34
0r	4d	4f	0r	2.dd
.	4c	4e	.	.
.	4B-	2.d	.	.
.	4A	.	.	4cc
.	2G	.	.	2b-
.	.	4e	.	.
.	2F	[2f	.	2a
=35	=35	=35	=35	=35
1r	1c	2f]	2r	1g
.	.	2e	1c	.
1F	1A	1f	.	1f
.	.	.	2d	.
=36	=36	=36	=36	=36
2G	2B	2r	2e	0r
2A	2c	2.a	1f	.
2D	1d	.	.	.
.	.	4a	.	.
[2d	.	2a	4e	.
.	.	.	4d	.
=37	=37	=37	=37	=37
2d]	2A	1a	1e	2r
2c#	2e	.	.	1a
2d	2f	2f	1d	.
2B	2g	2d	.	2b
=38	=38	=38	=38	=38
2A	2a	2e	1r	2cc
2d	2a	2f#	.	1dd
2G	1r	2g	1d	.
2B	.	2g	.	4cc
.	.	.	.	4b
=39	=39	=39	=39	=39
1A	1r	1c	2e	1cc
.	.	.	2f#	.
1G	2r	1d	1g	1b
.	2d	.	.	.
=40	=40	=40	=40	=40
1r	2e	0r	2c	1r
.	2f#	.	2d	.
2r	2.g	.	2.e	1b
2G	.	.	.	.
.	4f	.	4d	.
=41	=41	=41	=41	=41
2A	2e	1r	2c	2cc
2B	2d	.	2B	2dd
1c	4c	2r	1A	1ee
.	4d	.	.	.
.	4e	[2a	.	.
.	4c	.	.	.
=42	=42	=42	=42	=42
2F	2f	2a]	2c	2a
2G	2d	2g	2B	2b
2A	2r	2e	2.A	2.cc
[2F	2c	[2f	.	.
.	.	.	4G	4b
=43	=43	=43	=43	=43
2F]	2d	2f]	4A	2a
.	.	.	4B	.
2E	2e	2c	1c	2g
1D	[1f	2d	.	1f
.	.	2d	2B	.
=44	=44	=44	=44	=44
1C	2f]	2r	1c	2a
.	2e	2e	.	2g
[1D	2.d	2a	1r	2.f
.	.	2a	.	.
.	8c	.	.	4e
.	8B	.	.	.
=45	=45	=45	=45	=45
2D]	1A	2a	1r	4f
.	.	.	.	4g
2F	.	2d	.	1a
1E	1B	1e	2r	.
.	.	.	[2e	2g#
=46	=46	=46	=46	=46
[0A	[0A	2.c#	2e]	[0a
.	.	.	2A	.
.	.	4d	.	.
.	.	1e	2.c#	.
.	.	.	4d	.
=47	=47	=47	=47	=47
0A]	0A]	0c#	0e	0a]
==	==	==	==	==
*-	*-	*-	*-	*-
!!!CDT: 1525/^1526/-1594/2/2
!!!OCY: Italia
!!!AGN: Mass (Canonic)
!!!AST: renaissance, vocal
!!!ASW: Antiphon
!!!PWK: Masses, Book 9
!!!RNB: Cadence finals: D
!!!YOR: Le Opere Complete, v. 25, p. 93
!!!YOO: Rome, Italy: Fratelli Scalera
!!!END: 1992//
!!!EED: John Miller
!!!YEC: Copyright 2000, John Miller
!!!YEN: United States of America
!!!YEM: Rights to all derivative electronic formats reserved.
!!!YEM: Refer to licensing agreement for further details.
!!!YEM: This file must be accompanied by the licensing agreement.
!!!YEM: A copy of the licensing agreement may be found at http://www.music-cog.ohio-state.edu/HumdrumDatabases/Palestrina/license.txt
!!!EMD: converted to Humdrum by Bret Aarden
